material/.icons/material/currency-twd.svg

<svg xmlns="http://www.w3.org/2000/svg" viewBox="0 0 24 24"><path d="M3 11h18v2h-6v6h6v2h-6a2 2 0 01-2-2v-6h-2.65l-4.62 8L4 20l4.04-7H3v-2m2-8h14v2H5V3z"/></svg>

<?xml version="1.0" encoding="UTF-8"?><!DOCTYPE svg PUBLIC "-//W3C//DTD SVG 1.1//EN" "http://www.w3.org/Graphics/SVG/1.1/DTD/svg11.dtd"><svg xmlns="http://www.w3.org/2000/svg" xmlns:xlink="http://www.w3.org/1999/xlink" version="1.1" id="mdi-currency-twd" width="24" height="24" viewBox="0 0 24 24"><path d="M3,11H21V13H15V19H21V21H15A2,2 0 0,1 13,19V13H10.35L5.73,21L4,20L8.04,13H3V11M5,3H19V5H5V3Z" /></svg>
